source/img/cat-gain-tablet.svg

<svg width="268" height="200" viewBox="0 0 268 200" fill="none" xmlns="http://www.w3.org/2000/svg">
<circle cx="134" cy="100" r="100" fill="#68B738"/>
<g clip-path="url(#clip0_95690_448)">
<path d="M246.236 55.5137C248.545 51.8399 251.614 48.7029 255.236 46.3137C257.236 44.9137 258.436 44.9137 259.636 47.5137C261.236 51.3137 262.636 55.3137 261.436 59.5137C261.218 60.226 261.177 60.9809 261.316 61.7128C261.456 62.4447 261.772 63.1315 262.236 63.7137C263.436 65.3137 264.436 66.9137 265.436 68.3137C266.797 70.0412 267.68 72.0963 267.996 74.2728C268.312 76.4492 268.05 78.6705 267.236 80.7137C266.502 82.6973 266.363 84.8522 266.836 86.9137C267.236 88.8937 267.236 90.9337 266.836 92.9137C266.675 94.3965 266.075 95.7975 265.113 96.9375C264.151 98.0775 262.871 98.9048 261.436 99.3137C258.878 99.8005 256.595 101.227 255.036 103.314C254.848 103.621 254.583 103.874 254.267 104.049C253.952 104.225 253.597 104.316 253.236 104.314C250.836 104.714 244.836 99.3137 244.836 96.9137V95.7137C245.036 88.5137 244.636 87.9137 238.036 84.9137C236.655 84.4265 235.417 83.6015 234.436 82.5137C233.236 80.9137 231.636 81.1137 229.836 81.7137C228.036 82.3137 227.036 83.5137 227.236 85.5137C227.84 90.3554 228.04 95.2388 227.836 100.114C227.85 100.67 227.986 101.217 228.236 101.714C234.436 110.714 236.836 121.314 239.836 131.514C242.236 139.314 246.636 143.514 254.636 144.114C255.917 144.216 257.187 144.416 258.436 144.714C260.08 144.978 261.607 145.729 262.819 146.87C264.031 148.011 264.873 149.489 265.236 151.114C266.636 155.314 265.836 156.314 261.636 156.314H248.636C246.953 156.399 245.303 155.825 244.036 154.714C242.012 153.005 239.713 151.653 237.236 150.714C234.499 149.703 232.129 147.891 230.436 145.514C228.094 142.241 225.412 139.224 222.436 136.514C216.836 130.714 210.836 125.114 205.636 119.114C201.678 115.025 199.395 109.602 199.236 103.914C199.236 102.114 198.836 101.314 196.836 102.114C196.238 102.494 195.546 102.701 194.836 102.714C189.236 102.714 186.436 106.114 184.436 111.114C182.636 115.314 180.236 119.314 178.036 123.514C176.789 126.143 176.108 129.005 176.036 131.914C176.036 136.714 177.236 138.314 181.636 139.914C184.436 140.914 187.036 141.914 188.436 144.714C190.036 147.914 189.636 148.714 186.236 148.914H172.636C171.852 148.991 171.064 148.821 170.382 148.426C169.7 148.031 169.16 147.432 168.836 146.714L165.236 140.714C164.175 139.148 163.496 137.356 163.253 135.48C163.01 133.605 163.21 131.698 163.836 129.914C164.702 126.441 164.77 122.817 164.036 119.314C163.532 116.874 163.576 114.353 164.164 111.932C164.752 109.511 165.869 107.25 167.436 105.314C168.636 103.914 168.636 103.314 166.636 102.914C158.458 101.176 150.53 98.4217 143.036 94.7137C142.983 94.7137 142.933 94.6926 142.895 94.6551C142.858 94.6176 142.836 94.5667 142.836 94.5137C136.436 92.1137 135.236 92.5137 133.436 99.1137C131.836 104.714 130.236 110.314 129.036 116.114C127.636 122.514 129.236 128.514 131.236 134.514C132.036 136.914 134.436 136.714 136.236 137.314C140.236 138.514 143.636 140.114 145.236 144.314C146.636 147.514 146.436 147.914 143.036 147.914C139.636 147.914 136.236 147.714 132.636 147.914C129.599 147.969 126.634 146.98 124.236 145.114C114.636 138.714 111.836 128.914 111.036 118.314C110.636 111.714 107.036 106.514 102.836 101.514C102.036 100.514 101.236 100.114 100.036 100.914C95.7434 103.281 91.2614 105.288 86.6365 106.914C76.985 110.322 68.5157 116.431 62.2365 124.514C59.8918 127.464 58.3732 130.984 57.8365 134.714C57.2365 138.314 58.2365 139.914 61.8365 140.914C65.4365 141.914 67.2365 143.914 67.6365 147.714C67.8365 149.314 67.2365 150.114 65.6365 150.114H49.4365C48.9063 150.076 48.393 149.911 47.9403 149.632C47.4876 149.354 47.1089 148.97 46.8365 148.514C44.3242 145.403 42.9798 141.512 43.0365 137.514C42.9315 130.604 43.5346 123.701 44.8365 116.914C45.1034 114.881 45.8623 112.944 47.0473 111.271C48.2323 109.598 49.8075 108.24 51.6365 107.314C63.4365 101.714 69.6365 91.1137 75.2365 80.1137C76.4365 77.9137 75.4365 77.5137 73.4365 77.7137C67.8391 78.4908 62.5358 80.6947 58.0365 84.1137C52.1448 88.4114 46.5949 93.1589 41.4365 98.3137C35.9358 103.901 28.6418 107.371 20.8365 108.114C6.23646 108.914 -0.56354 100.714 0.0364599 87.5137C0.170585 83.0129 1.86775 78.6993 4.83646 75.3137C5.8685 73.9757 7.27593 72.9757 8.87899 72.4413C10.4821 71.907 12.208 71.8625 13.8365 72.3137C16.8365 73.1137 17.6365 74.7137 16.4365 77.7137C15.8365 78.9137 15.0365 79.9137 14.4365 81.1137C13.5737 82.3396 12.8995 83.6879 12.4365 85.1137C10.2365 91.1137 13.2365 95.3137 19.4365 95.9137C26.0365 96.5137 31.4365 93.7137 36.4365 89.7137C42.4603 84.8902 47.8379 79.311 52.4365 73.1137C55.875 68.5885 60.2046 64.8163 65.1581 62.03C70.1116 59.2436 75.5837 57.5024 81.2365 56.9137C85.8365 56.3137 89.8365 54.3137 94.2365 53.1137C102.465 50.6049 111.034 49.3904 119.636 49.5137C123.621 49.6796 127.59 48.9269 131.236 47.3137C141.036 43.3137 151.236 43.3137 161.436 45.3137C169.436 46.9137 177.436 48.9137 185.236 50.9137C189.878 51.7787 194.651 51.6423 199.236 50.5137C208.014 48.2888 216.992 46.9488 226.036 46.5137C231.961 46.2254 237.867 47.3928 243.236 49.9137C247.236 51.7137 247.236 51.7137 246.236 55.5137Z" fill="black"/>
</g>
<defs>
<clipPath id="clip0_95690_448">
<rect width="268" height="112" fill="white" transform="translate(0 44)"/>
</clipPath>
</defs>
</svg>

<svg width="268" height="200" fill="none" xmlns="http://www.w3.org/2000/svg"><circle cx="134" cy="100" r="100" fill="#68B738"/><g clip-path="url(#a)"><path d="M246.236 55.514a30.402 30.402 0 0 1 9-9.2c2-1.4 3.2-1.4 4.4 1.2 1.6 3.8 3 7.8 1.8 12a4.59 4.59 0 0 0 .8 4.2c1.2 1.6 2.2 3.2 3.2 4.6a12.541 12.541 0 0 1 1.8 12.4 10.865 10.865 0 0 0-.4 6.2c.4 1.98.4 4.02 0 6a7.494 7.494 0 0 1-5.4 6.4 10.419 10.419 0 0 0-6.4 4c-.188.307-.453.56-.769.735-.315.176-.67.267-1.031.265-2.4.4-8.4-5-8.4-7.4v-1.2c.2-7.2-.2-7.8-6.8-10.8a8.783 8.783 0 0 1-3.6-2.4c-1.2-1.6-2.8-1.4-4.6-.8-1.8.6-2.8 1.8-2.6 3.8.604 4.841.804 9.725.6 14.6.014.556.15 1.103.4 1.6 6.2 9 8.6 19.6 11.6 29.8 2.4 7.8 6.8 12 14.8 12.6 1.281.102 2.551.302 3.8.6a8.318 8.318 0 0 1 6.8 6.4c1.4 4.2.6 5.2-3.6 5.2h-13a6.481 6.481 0 0 1-4.6-1.6 23.39 23.39 0 0 0-6.8-4 14.53 14.53 0 0 1-6.8-5.2 57.163 57.163 0 0 0-8-9c-5.6-5.8-11.6-11.4-16.8-17.4a22.77 22.77 0 0 1-6.4-15.2c0-1.8-.4-2.6-2.4-1.8a3.86 3.86 0 0 1-2 .6c-5.6 0-8.4 3.4-10.4 8.4-1.8 4.2-4.2 8.2-6.4 12.4a20.802 20.802 0 0 0-2 8.4c0 4.8 1.2 6.4 5.6 8 2.8 1 5.4 2 6.8 4.8 1.6 3.2 1.2 4-2.2 4.2h-13.6a3.762 3.762 0 0 1-3.8-2.2l-3.6-6a12.101 12.101 0 0 1-1.4-10.8c.866-3.473.934-7.097.2-10.6a16.842 16.842 0 0 1 3.4-14c1.2-1.4 1.2-2-.8-2.4a100.166 100.166 0 0 1-23.6-8.2.2.2 0 0 1-.2-.2c-6.4-2.4-7.6-2-9.4 4.6-1.6 5.6-3.2 11.2-4.4 17-1.4 6.4.2 12.4 2.2 18.4.8 2.4 3.2 2.2 5 2.8 4 1.2 7.4 2.8 9 7 1.4 3.2 1.2 3.6-2.2 3.6-3.4 0-6.8-.2-10.4 0a13.288 13.288 0 0 1-8.4-2.8c-9.6-6.4-12.4-16.2-13.2-26.8-.4-6.6-4-11.8-8.2-16.8-.8-1-1.6-1.4-2.8-.6a88.625 88.625 0 0 1-13.4 6 53.42 53.42 0 0 0-24.4 17.6 21.259 21.259 0 0 0-4.4 10.2c-.6 3.6.4 5.2 4 6.2s5.4 3 5.8 6.8c.2 1.6-.4 2.4-2 2.4h-16.2a3.301 3.301 0 0 1-2.6-1.6 17.121 17.121 0 0 1-3.8-11 101.19 101.19 0 0 1 1.8-20.6 12.6 12.6 0 0 1 6.8-9.6c11.8-5.6 18-16.2 23.6-27.2 1.2-2.2.2-2.6-1.8-2.4a32.94 32.94 0 0 0-15.4 6.4 141.23 141.23 0 0 0-16.6 14.2 33.342 33.342 0 0 1-20.6 9.8c-14.6.8-21.4-7.4-20.8-20.6a19.38 19.38 0 0 1 4.8-12.2 8.5 8.5 0 0 1 9-3c3 .8 3.8 2.4 2.6 5.4-.6 1.2-1.4 2.2-2 3.4a14.998 14.998 0 0 0-2 4c-2.2 6 .8 10.2 7 10.8 6.6.6 12-2.2 17-6.2a89.88 89.88 0 0 0 16-16.6 41.579 41.579 0 0 1 28.8-16.2c4.6-.6 8.6-2.6 13-3.8a83.014 83.014 0 0 1 25.4-3.6 25.996 25.996 0 0 0 11.6-2.2c9.8-4 20-4 30.2-2 8 1.6 16 3.6 23.8 5.6 4.642.865 9.415.728 14-.4a135.599 135.599 0 0 1 26.8-4 36.318 36.318 0 0 1 17.2 3.4c4 1.8 4 1.8 3 5.6Z" fill="#000"/></g><defs><clipPath id="a"><path fill="#fff" transform="translate(0 44)" d="M0 0h268v112H0z"/></clipPath></defs></svg>
